Otagle3/Assets/ikonySvG/ObrotObiektWLewoO90.svg

<?xml version="1.0" encoding="UTF-8" standalone="no"?>
<svg
   xmlns:dc="http://purl.org/dc/elements/1.1/"
   xmlns:cc="http://creativecommons.org/ns#"
   xmlns:rdf="http://www.w3.org/1999/02/22-rdf-syntax-ns#"
   xmlns:svg="http://www.w3.org/2000/svg"
   xmlns="http://www.w3.org/2000/svg"
   id="svg47"
   version="1.1"
   viewBox="0 0 52.758294 52.758296"
   height="199.40143"
   width="199.40143">
  <defs
     id="defs42">
    <pattern
       id="EMFhbasepattern"
       patternUnits="userSpaceOnUse"
       width="6"
       height="6"
       x="0"
       y="0" />
    <marker
       style="overflow:visible"
       id="Arrow1Mend-5-0"
       refX="0"
       refY="0"
       orient="auto">
      <path
         transform="matrix(-0.4,0,0,-0.4,-4,0)"
         style="fill:#000000;fill-opacity:1;fill-rule:evenodd;stroke:#000000;stroke-width:1.00000003pt;stroke-opacity:1"
         d="M 0,0 5,-5 -12.5,0 5,5 Z"
         id="path1146-3-3" />
    </marker>
    <marker
       style="overflow:visible"
       id="Arrow1Mend-5-3"
       refX="0"
       refY="0"
       orient="auto">
      <path
         transform="matrix(-0.4,0,0,-0.4,-4,0)"
         style="fill:#000000;fill-opacity:1;fill-rule:evenodd;stroke:#000000;stroke-width:1.00000003pt;stroke-opacity:1"
         d="M 0,0 5,-5 -12.5,0 5,5 Z"
         id="path1146-3-9" />
    </marker>
    <marker
       orient="auto"
       refY="0"
       refX="0"
       id="Arrow1Mend-5-0-4"
       style="overflow:visible">
      <path
         id="path1146-3-3-8"
         d="M 0,0 5,-5 -12.5,0 5,5 Z"
         style="fill:#ffffff;fill-opacity:1;fill-rule:evenodd;stroke:#ffffff;stroke-width:1.00000003pt;stroke-opacity:1"
         transform="matrix(-0.4,0,0,-0.4,-4,0)" />
    </marker>
    <marker
       orient="auto"
       refY="0"
       refX="0"
       id="Arrow1Mend-5-3-8"
       style="overflow:visible">
      <path
         id="path1146-3-9-5"
         d="M 0,0 5,-5 -12.5,0 5,5 Z"
         style="fill:#ffffff;fill-opacity:1;fill-rule:evenodd;stroke:#ffffff;stroke-width:1.00000003pt;stroke-opacity:1"
         transform="matrix(-0.4,0,0,-0.4,-4,0)" />
    </marker>
    <marker
       style="overflow:visible"
       id="Arrow1Mend"
       refX="0"
       refY="0"
       orient="auto">
      <path
         transform="matrix(-0.4,0,0,-0.4,-4,0)"
         style="fill:#000000;fill-opacity:1;fill-rule:evenodd;stroke:#000000;stroke-width:1.00000003pt;stroke-opacity:1"
         d="M 0,0 5,-5 -12.5,0 5,5 Z"
         id="path1146" />
    </marker>
    <marker
       orient="auto"
       refY="0"
       refX="0"
       id="Arrow1Mend-5"
       style="overflow:visible">
      <path
         id="path1146-3"
         d="M 0,0 5,-5 -12.5,0 5,5 Z"
         style="fill:#ffffff;fill-opacity:1;fill-rule:evenodd;stroke:#ffffff;stroke-width:1.00000003pt;stroke-opacity:1"
         transform="matrix(-0.4,0,0,-0.4,-4,0)" />
    </marker>
    <marker
       style="overflow:visible"
       id="Arrow1Mstart"
       refX="0"
       refY="0"
       orient="auto">
      <path
         transform="matrix(0.4,0,0,0.4,4,0)"
         style="fill:#000000;fill-opacity:1;fill-rule:evenodd;stroke:#000000;stroke-width:1.00000003pt;stroke-opacity:1"
         d="M 0,0 5,-5 -12.5,0 5,5 Z"
         id="path1143" />
    </marker>
    <marker
       orient="auto"
       refY="0"
       refX="0"
       id="Arrow1Mstart-1"
       style="overflow:visible">
      <path
         id="path1143-7"
         d="M 0,0 5,-5 -12.5,0 5,5 Z"
         style="fill:#ffffff;fill-opacity:1;fill-rule:evenodd;stroke:#ffffff;stroke-width:1.00000003pt;stroke-opacity:1"
         transform="matrix(0.4,0,0,0.4,4,0)" />
    </marker>
    <marker
       style="overflow:visible"
       id="Arrow1Lend"
       refX="0"
       refY="0"
       orient="auto">
      <path
         transform="matrix(-0.8,0,0,-0.8,-10,0)"
         style="fill:#000000;fill-opacity:1;fill-rule:evenodd;stroke:#000000;stroke-width:1.00000003pt;stroke-opacity:1"
         d="M 0,0 5,-5 -12.5,0 5,5 Z"
         id="path1140" />
    </marker>
    <marker
       style="overflow:visible"
       id="Arrow1Lstart"
       refX="0"
       refY="0"
       orient="auto">
      <path
         transform="matrix(0.8,0,0,0.8,10,0)"
         style="fill:#000000;fill-opacity:1;fill-rule:evenodd;stroke:#000000;stroke-width:1.00000003pt;stroke-opacity:1"
         d="M 0,0 5,-5 -12.5,0 5,5 Z"
         id="path1137" />
    </marker>
    <marker
       orient="auto"
       refY="0"
       refX="0"
       id="Arrow1Lend-5"
       style="overflow:visible">
      <path
         id="path1140-4"
         d="M 0,0 5,-5 -12.5,0 5,5 Z"
         style="fill:#ffffff;fill-opacity:1;fill-rule:evenodd;stroke:#ffffff;stroke-width:1.00000003pt;stroke-opacity:1"
         transform="matrix(-0.8,0,0,-0.8,-10,0)" />
    </marker>
    <marker
       orient="auto"
       refY="0"
       refX="0"
       id="Arrow1Lstart-93"
       style="overflow:visible">
      <path
         id="path1137-7"
         d="M 0,0 5,-5 -12.5,0 5,5 Z"
         style="fill:#ffffff;fill-opacity:1;fill-rule:evenodd;stroke:#ffffff;stroke-width:1.00000003pt;stroke-opacity:1"
         transform="matrix(0.8,0,0,0.8,10,0)" />
    </marker>
  </defs>
  <metadata
     id="metadata45">
    <rdf:RDF>
      <cc:Work
         rdf:about="">
        <dc:format>image/svg+xml</dc:format>
        <dc:type
           rdf:resource="http://purl.org/dc/dcmitype/StillImage" />
        <dc:title></dc:title>
      </cc:Work>
    </rdf:RDF>
  </metadata>
  <g
     id="g8556"
     transform="translate(49.836509,-375.23204)">
    <g
       id="g5305">
      <text
         id="text898-7-3-6-8-3-3-0-66-7-8-8-0-8-3-4-2-6-22-3-3-4-7-0-2-6-2"
         y="425.61624"
         x="-23.21401"
         style="font-size:6.3499999px;line-height:0.94999999;font-family:voestalpine;-inkscape-font-specification:voestalpine;text-align:center;letter-spacing:0px;word-spacing:0px;text-anchor:middle;fill:#ffffff;fill-opacity:1;stroke-width:0.26458299"
         xml:space="preserve"><tspan
           style="font-size:6.3499999px;text-align:center;text-anchor:middle;fill:#ffffff;fill-opacity:1;stroke-width:0.26458299"
           y="425.61624"
           x="-23.21401"
           id="tspan3280-8-2-3-8">Pokaż nagłówek</tspan></text>
      <g
         style="fill:#ffffff;fill-opacity:1;stroke:#ffffff;stroke-opacity:1"
         id="g3425-7-6"
         transform="matrix(0.43424404,0,0,-0.43424404,-44.517248,415.49935)">
        <rect
           id="rect3393-7-1"
           height="2"
           width="13.89"
           y="68.667"
           x="17.409"
           style="fill:#ffffff;fill-opacity:1;stroke:#ffffff;stroke-opacity:1" />
        <path
           id="path3395-1-7"
           d="M 85.235,77.833 H 14.106 c -2.998,0 -5.436,-2.438 -5.436,-5.436 V 23.27 c 0,-2.998 2.438,-5.436 5.436,-5.436 h 71.129 c 2.998,0 5.436,2.438 5.436,5.436 v 49.128 c -0.001,2.998 -2.438,5.435 -5.436,5.435 z m -71.129,-58 c -1.895,0 -3.436,1.541 -3.436,3.437 v 49.128 c 0,1.895 1.541,3.436 3.436,3.436 h 71.129 c 1.895,0 3.436,-1.541 3.436,-3.436 V 23.27 c 0,-1.896 -1.541,-3.437 -3.436,-3.437 z"
           style="fill:#ffffff;fill-opacity:1;stroke:#ffffff;stroke-opacity:1" />
        <rect
           id="rect3397-6-6"
           height="2"
           width="13.89"
           y="68.667"
           x="42.648998"
           style="fill:#ffffff;fill-opacity:1;stroke:#ffffff;stroke-opacity:1" />
        <rect
           id="rect3399-8-5"
           height="2"
           width="13.89"
           y="68.667"
           x="67.704002"
           style="fill:#ffffff;fill-opacity:1;stroke:#ffffff;stroke-opacity:1" />
        <rect
           id="rect3401-4-7"
           height="2"
           width="13.89"
           y="62.667"
           x="17.500999"
           style="fill:#ffffff;fill-opacity:1;stroke:#ffffff;stroke-opacity:1" />
        <rect
           id="rect3403-9-4"
           height="2"
           width="13.89"
           y="62.667"
           x="42.742001"
           style="fill:#ffffff;fill-opacity:1;stroke:#ffffff;stroke-opacity:1" />
        <rect
           id="rect3405-2-5"
           height="2"
           width="13.89"
           y="62.667"
           x="67.795998"
           style="fill:#ffffff;fill-opacity:1;stroke:#ffffff;stroke-opacity:1" />
        <rect
           id="rect3407-0-9"
           height="2"
           width="64.139"
           y="56.667"
           x="17.500999"
           style="fill:#ffffff;fill-opacity:1;stroke:#ffffff;stroke-opacity:1" />
      </g>
      <g
         id="g2414"
         transform="translate(-783.11336,461.87349)">
        <rect
           style="fill:#b9d4ff;fill-opacity:1;stroke:#000000;stroke-width:0.28429499;stroke-linecap:round;stroke-miterlimit:4;stroke-dasharray:none;stroke-opacity:1;paint-order:fill markers stroke"
           id="rect833-2-8-6-2-6-4-8-1-7-6"
           width="52.632374"
           height="52.63237"
           x="733.58521"
           y="-86.664398" />
        <text
           xml:space="preserve"
           style="font-size:6.3499999px;line-height:1.04999995;font-family:voestalpine;-inkscape-font-specification:voestalpine;text-align:end;letter-spacing:0px;word-spacing:0px;text-anchor:end;stroke-width:0.26458299"
           x="760.00323"
           y="-42.098473"
           id="text837-2-5-3-5-4-2-1-6-9-6"><tspan
             id="tspan3161-7-17-8"
             x="760.00323"
             y="-42.098473"
             style="font-size:6.3499999px;text-align:center;text-anchor:middle;stroke-width:0.26458299">Obróć obiekt</tspan><tspan
             id="tspan3375-3"
             x="760.00323"
             y="-35.430973"
             style="font-size:6.3499999px;text-align:center;text-anchor:middle;stroke-width:0.26458299">w lewo o 90°</tspan></text>
        <g
           id="g3443"
           transform="translate(3.0735996)">
          <g
             style="fill:#000000"
             id="g3186-7-7-8"
             transform="matrix(0.26458333,0,0,0.26458333,749.86044,-83.570979)">
            <path
               id="path3175-1-1-3"
               d="M 61.8,18.1 50.5,6.8 39.2,18.1 43.3,22.2 22.2,43.3 18.1,39.2 6.8,50.5 18.1,61.8 22.7,57.2 42.8,77.3 38.2,81.9 49.5,93.2 60.8,81.9 57.2,78.3 78.3,57.2 81.9,60.8 93.2,49.5 81.9,38.2 77.8,42.3 57.7,22.2 Z m 8.8,31.4 4.6,4.6 -21.1,21.1 -4.6,-4.6 -3.6,3.6 -20.1,-20.1 3.6,-3.6 -4.1,-4.1 21.1,-21.1 4.1,4.1 4.1,-4.1 20.1,20.1 z" />
          </g>
          <g
             style="fill:#000000"
             id="g3388-2"
             transform="matrix(0,0.29398148,-0.29398148,0,760.62867,-83.788322)">
            <path
               id="path3377-9"
               d="m 19.548149,26.785803 c 0.02863,0.573364 0.148804,1.129394 0.256226,1.68927 l 0.32135,1.683288 c 0.339844,2.276793 1.0802,4.449095 1.729675,6.668944 1.553955,4.326721 3.471924,8.625244 6.156738,12.470215 1.213623,2.021057 2.788025,3.768127 4.252259,5.629638 0.770507,0.894165 1.62976,1.706421 2.448059,2.56604 l 1.247436,1.273987 c 0.419617,0.421875 0.89447,0.778748 1.341065,1.171753 l 2.737121,2.309143 c 0.960022,0.707642 1.955872,1.371277 2.940552,2.059208 l 1.486878,1.023071 c 0.51477,0.30835 1.044799,0.591309 1.568664,0.888062 l 3.079651,1.715088 -2.199097,5.166443 c 8.862305,0.160339 17.091553,-1.826172 23.925721,-5.161621 -6.859986,-3.352295 -12.340943,-8.047307 -16.07074,-13.292424 l -2.199036,5.166321 -2.760803,-1.096252 c -0.473755,-0.191773 -0.956482,-0.369446 -1.426941,-0.57251 L 47.0205,57.436497 C 46.113396,56.959446 45.184441,56.507175 44.2799,56.009556 L 41.677239,54.327 c -0.429383,-0.289246 -0.88971,-0.542847 -1.297486,-0.862122 L 39.16021,52.496983 c -0.804627,-0.656678 -1.660278,-1.268677 -2.437134,-1.966309 -1.476379,-1.467896 -3.102051,-2.83606 -4.400818,-4.497559 -2.85553,-3.126587 -5.082275,-6.786682 -7.042419,-10.598999 -0.852295,-1.962097 -1.81958,-3.907774 -2.403748,-5.992185 l -0.507812,-1.54541 c -0.170594,-0.516053 -0.35492,-1.030518 -0.448548,-1.564759 l -0.702026,-3.191101 c -0.265564,-1.020019 -0.354736,-1.931579 -0.471558,-2.71228 -0.117004,-0.78064 -0.232055,-1.433655 -0.343261,-1.957642 -0.222535,-1.047851 -0.429566,-1.579651 -0.60962,-1.579712 -0.180053,-6.1e-5 -0.333435,0.532166 -0.448669,1.612366 -0.05762,0.5401 -0.105591,1.217102 -0.142151,2.032471 -0.03674,0.815307 -0.09186,1.771911 0.04327,2.850219 z" />
          </g>
        </g>
      </g>
    </g>
  </g>
</svg>

<svg id="SVGRoot" width="206px" height="206px" version="1.1" viewBox="0 0 206 206" xmlns="http://www.w3.org/2000/svg">
 <g transform="matrix(3.7795 0 0 3.7795 -1795.2 2502.6)">
  <flowRoot fill="black" font-family="sans-serif" font-size="40px" letter-spacing="0px" word-spacing="0px" style="line-height:1.25" xml:space="preserve"><flowRegion><rect x="-392.69" y="-63.57" width="758.02" height="397.52"/></flowRegion><flowPara/></flowRoot>
  <flowRoot fill="black" font-family="sans-serif" font-size="40px" letter-spacing="0px" word-spacing="0px" style="line-height:1.25" xml:space="preserve"><flowRegion><rect x="-251.87" y="-84.492" width="624.44" height="455.45"/></flowRegion><flowPara/></flowRoot>
  <flowRoot fill="black" font-family="sans-serif" font-size="40px" letter-spacing="0px" word-spacing="0px" style="line-height:1.25" xml:space="preserve"><flowRegion><rect x="-202.78" y="-50.695" width="473.96" height="281.64"/></flowRegion><flowPara/></flowRoot>
  <flowRoot fill="black" font-family="sans-serif" font-size="40px" letter-spacing="0px" word-spacing="0px" style="line-height:1.25" xml:space="preserve"><flowRegion><rect x="-86.906" y="-78.859" width="516.61" height="410.39"/></flowRegion><flowPara/></flowRoot>
  <flowRoot fill="black" font-family="sans-serif" font-size="40px" letter-spacing="0px" word-spacing="0px" style="line-height:1.25" xml:space="preserve"><flowRegion><rect x="-81.273" y="-32.188" width="309" height="322.68"/></flowRegion><flowPara/></flowRoot>
  <flowRoot fill="black" font-family="sans-serif" font-size="40px" letter-spacing="0px" word-spacing="0px" style="line-height:1.25" xml:space="preserve"><flowRegion><rect x="-90.93" y="-68.398" width="392.69" height="252.67"/></flowRegion><flowPara/></flowRoot>
  <g transform="translate(675.17 -.21291)">
   <flowRoot fill="black" font-family="sans-serif" font-size="40px" letter-spacing="0px" word-spacing="0px" style="line-height:1.25" xml:space="preserve"><flowRegion><rect x="-100.59" y="-53.109" width="462.7" height="369.35"/></flowRegion><flowPara/></flowRoot>
   <g transform="translate(57.194 .21291)">
    <flowRoot fill="black" font-family="sans-serif" font-size="40px" letter-spacing="0px" word-spacing="0px" style="line-height:1.25" xml:space="preserve"><flowRegion><rect x="-329.12" y="-12.07" width="696.05" height="259.91"/></flowRegion><flowPara/></flowRoot>
    <g transform="translate(-1495.1 -629.38)">
     <flowRoot fill="black" font-family="sans-serif" font-size="40px" letter-spacing="0px" word-spacing="0px" style="line-height:1.25" xml:space="preserve"><flowRegion><rect x="-306.59" y="-111.05" width="206" height="51.5"/></flowRegion><flowPara/></flowRoot>
     <flowRoot fill="black" font-family="sans-serif" font-size="40px" letter-spacing="0px" word-spacing="0px" style="line-height:1.25" xml:space="preserve"><flowRegion><rect x="-70.812" y="-36.211" width="362.91" height="283.25"/></flowRegion><flowPara/></flowRoot>
     <g transform="translate(538.4 -400.97)">
      <flowRoot fill="black" font-family="sans-serif" font-size="40px" letter-spacing="0px" word-spacing="0px" style="line-height:1.25" xml:space="preserve"><flowRegion><rect x="-138.41" y="-65.18" width="448.21" height="363.72"/></flowRegion><flowPara/></flowRoot>
      <flowRoot fill="black" font-family="sans-serif" font-size="40px" letter-spacing="0px" word-spacing="0px" style="line-height:1.25" xml:space="preserve"><flowRegion><rect x="-67.578" y="-8.4531" width="327.73" height="260.94"/></flowRegion><flowPara/></flowRoot>
      <g transform="translate(-380.28 455.78)">
       <g transform="translate(347.04 -.2067)">
        <rect x="733.59" y="-86.664" width="52.632" height="52.632" fill="#b9d4ff" stroke="#000" stroke-linecap="round" stroke-width=".28429" style="paint-order:fill markers stroke"/>
        <text transform="scale(1 1)" x="760.00208" y="-43.832012" font-family="sans-serif" font-size="4.9389px" letter-spacing="0px" stroke-width=".26458" text-align="end" text-anchor="middle" word-spacing="0px" style="line-height:1.04999995" xml:space="preserve"><tspan x="760.00208" y="-43.832012" text-align="center">Obróć obiekt</tspan><tspan x="760.00208" y="-37.164501" text-align="center">w lewo o 90°</tspan></text>
        <g transform="translate(3.0736)">
         <g transform="matrix(.26458 0 0 .26458 749.86 -83.571)">
          <path d="m61.8 18.1-11.3-11.3-11.3 11.3 4.1 4.1-21.1 21.1-4.1-4.1-11.3 11.3 11.3 11.3 4.6-4.6 20.1 20.1-4.6 4.6 11.3 11.3 11.3-11.3-3.6-3.6 21.1-21.1 3.6 3.6 11.3-11.3-11.3-11.3-4.1 4.1-20.1-20.1zm8.8 31.4 4.6 4.6-21.1 21.1-4.6-4.6-3.6 3.6-20.1-20.1 3.6-3.6-4.1-4.1 21.1-21.1 4.1 4.1 4.1-4.1 20.1 20.1z"/>
         </g>
         <g transform="matrix(0 .29398 -.29398 0 760.63 -83.788)">
          <path d="m19.548 26.786c.02863.57336.1488 1.1294.25623 1.6893l.32135 1.6833c.33984 2.2768 1.0802 4.4491 1.7297 6.6689 1.554 4.3267 3.4719 8.6252 6.1567 12.47 1.2136 2.0211 2.788 3.7681 4.2523 5.6296.77051.89416 1.6298 1.7064 2.4481 2.566l1.2474 1.274c.41962.42188.89447.77875 1.3411 1.1718l2.7371 2.3091c.96002.70764 1.9559 1.3713 2.9406 2.0592l1.4869 1.0231c.51477.30835 1.0448.59131 1.5687.88806l3.0797 1.7151-2.1991 5.1664c8.8623.16034 17.092-1.8262 23.926-5.1616-6.86-3.3523-12.341-8.0473-16.071-13.292l-2.199 5.1663-2.7608-1.0963c-.47376-.19177-.95648-.36945-1.4269-.57251l-1.3624-.70697c-.9071-.47705-1.8361-.92932-2.7406-1.4269l-2.6027-1.6826c-.42938-.28925-.88971-.54285-1.2975-.86212l-1.2195-.9679c-.80463-.65668-1.6603-1.2687-2.4371-1.9663-1.4764-1.4679-3.1021-2.8361-4.4008-4.4976-2.8555-3.1266-5.0823-6.7867-7.0424-10.599-.8523-1.9621-1.8196-3.9078-2.4037-5.9922l-.50781-1.5454c-.17059-.51605-.35492-1.0305-.44855-1.5648l-.70203-3.1911c-.26556-1.02-.35474-1.9316-.47156-2.7123-.117-.78064-.23206-1.4337-.34326-1.9576-.22254-1.0479-.42957-1.5797-.60962-1.5797-.18005-6.1e-5-.33344.53217-.44867 1.6124-.05762.5401-.10559 1.2171-.14215 2.0325-.03674.81531-.09186 1.7719.04327 2.8502z"/>
         </g>
        </g>
       </g>
      </g>
     </g>
    </g>
   </g>
  </g>
 </g>
</svg>
